X: 1726
T: BILLY TAYLOR'S FANCY
M:C|
L:1/8
B:O'NEILL'S 1726
N:"collected by Gillan"
Z:Transcribed by A.LEE WORMAN
K:G
D>F|G>AB>c d>Be>c|d>gf>g b>gd>B|(3cBA e>c (3BAG d>B|(3ABG (3FGE D>cB
>A|
G>AB>c d>ce>c|d>gf>g b>gd>B|(3cBA e>c (3BAG (3AGF|G>BA>F G2:|
|:(f>g)|a>g (3fge d>ef>g|(3agf (3gfe d>ef>g|(3agf (3bag (3agf (3gfe|d>gg>c (3BAG (3AGF|
G>AB>c d>ce>c|d>gf>g b>gd>B|(3cBA e>c (3BAG (3AGF|G>BA>F G2:|


